!!!!SEGMENT: Vin2002-Salve_regina_II--Munich_34
!!!id: Vin2002
!!!SMS: Munich 34
!!!AGN: Motet
!!!voices: 4
!!!COM: Jheronimus Vinders
!!!OTL: Salve regina II (Munich 34)
**kern	**kern	**kern	**kern
*part4	*part3	*part2	*part1
*staff4	*staff3	*staff2	*staff1
*I"Bassus	*I"Tenor	*I"Altus	*I"Superius
*I'B.	*I'T.	*I'A.	*I'S.
*clefF4	*clefGv2	*clefGv2	*clefG2
*k[]	*k[]	*k[]	*k[]
*M2/1	*M2/1	*M2/1	*M2/1
*met(C)	*met(C)	*met(C)	*met(C)
=1	=1	=1	=1
!!section: Prima pars: Vita dulcedo
!!!OMD: Prima pars: Vita dulcedo
0r	1A	1r	0r
.	1G	1d	.
=2	=2	=2	=2
0r	1A	1c	1r
.	1D	1d	1a
=3	=3	=3	=3
1E	0r	1G	1g
[1D	.	[1d	1a
=4	=4	=4	=4
1D]	0r	2d]	2d
.	.	2c	1a
1E	.	1B	.
.	.	.	2g
=5	=5	=5	=5
1AA	1.A	2A	1f
.	.	1c	.
2AA	.	.	1e
[2E	2G	2B	.
=6	=6	=6	=6
2E]	1F	2c	1f
2D	.	2d	.
2C	1E	2e	2g
2AA	.	2c	[2a
=7	=7	=7	=7
1BB	1D	1d	2a]
.	.	.	2g
1AA	2E	1c	2.a
.	2F	.	.
.	.	.	4g
=8	=8	=8	=8
2BB	2D	2.d	2f
2GG	2.G	.	1e
.	.	4c	.
1BB-X	.	2B-X	.
.	4F	.	.
.	2D	2G	[2d
=9	=9	=9	=9
1AA	1E	1A	2d]
.	.	.	2c#i
2r	1D	1r	1d
2D	.	.	.
=10	=10	=10	=10
2.E	0r	2.G	0r
4F	.	4A	.
4G	.	4B	.
4E	.	4G	.
2F	.	[2c	.
=11	=11	=11	=11
1D	1r	2c]	0r
.	.	2B	.
[1C	2.C	2c	.
.	.	4B	.
.	4D	4A	.
=12	=12	=12	=12
0C]	4E	2G	0r
.	4C	.	.
.	1F	2A	.
.	.	1G	.
.	2E	.	.
=13	=13	=13	=13
2r	2F	2A	2.c
2F	2A	1c	.
.	.	.	4d
2E	2G	.	4e
.	.	.	4c
2D	2F	2B	[2f
=14	=14	=14	=14
1C	1G	1c	2f]
.	.	.	2e
2r	2A	2r	2f
2AA	2c	[2e	2a
=15	=15	=15	=15
2E	2B	2e]	2g
2D	2.d	1f	1b
1F	.	.	.
.	4c	.	.
.	4B	2d	[2a
.	4A	.	.
=16	=16	=16	=16
1E	1B	1e	2a]
.	.	.	2g#i
1AA	[1A	2c	[1a
.	.	2f	.
=17	=17	=17	=17
1r	0A]	2e	2a]
.	.	1d	4g
.	.	.	4f
1AA	.	.	1e
.	.	2c#i	.
=18	=18	=18	=18
1BB	1D	1d	1d
1C	1E	2G	1r
.	.	2c	.
=19	=19	=19	=19
1D	1.F	2A	1d
.	.	1d	.
2AA	.	.	1e
2C	2E	[2c	.
=20	=20	=20	=20
1D	1D	2c]	1f
.	.	2B	.
1AA	1C	4c	2f
.	.	4B	.
.	.	4A	[2e
.	.	4G	.
=21	=21	=21	=21
2BB	2F	2F	4e]
.	.	.	4d
2GG	2G	2B-i	1d
1AA	1E	1A	.
.	.	.	2c#i
=22	=22	=22	=22
0Dl	0Dl	0Al	0dl
=23||	=23||	=23||	=23||
*M2/1	*M2/1	*M2/1	*M2/1
*met(C|)	*met(C|)	*met(C|)	*met(C|)
!!section: Secunda pars: Ad te
!!!OMD: Secunda pars: Ad te
0r	0r	0r	1d
.	.	.	1f
=24	=24	=24	=24
0r	1r	0r	1g
.	1D	.	[1a
=25	=25	=25	=25
0r	1F	0r	1a]
.	1G	.	1r
=26	=26	=26	=26
0r	1A	1A	1cc
.	1r	1c	2g
.	.	.	[2a
=27	=27	=27	=27
0r	1F	1d	2a]
.	.	.	4g
.	.	.	4f
.	2C	1e	1g
.	[2c	.	.
=28	=28	=28	=28
0r	4c]	1r	0a
.	4B	.	.
.	4A	.	.
.	4G	.	.
.	[1F	1f	.
=29	=29	=29	=29
0r	2F]	1.c	0cc
.	1A	.	.
.	4G	2d	.
.	4F	.	.
=30	=30	=30	=30
0r	1E	1e	1g
.	1D	2.f	2.a
.	.	4e	4g
=31	=31	=31	=31
0r	0r	4f	4a
.	.	4d	4b
.	.	1e	1cc
.	.	4d	4b
.	.	4c	4a
=32	=32	=32	=32
0r	0r	4B	4b
.	.	4A	4cc
.	.	2c	1a
.	.	1B	.
.	.	.	2g#i
=33	=33	=33	=33
0r	0F	1A	1a
.	.	[1c	1r
=34	=34	=34	=34
0r	2.C	1c]	0r
.	4D	.	.
.	1E	1G	.
=35	=35	=35	=35
0r	2.F	2.A	0r
.	4E	4G	.
.	4F	4A	.
.	4D	4B	.
.	[2E	[2c	.
=36	=36	=36	=36
0r	2E]	2c]	0r
.	4D	4B	.
.	4C	4A	.
.	4BB	4B	.
.	4AA	4c	.
.	2C	2A	.
=37	=37	=37	=37
0r	1BB	2B	1d
.	.	1d	.
.	1AA	.	1e
.	.	2c#i	.
=38	=38	=38	=38
0r	1D	1d	1f
.	1E	1r	1g
=39	=39	=39	=39
0r	1F	1A	1r
.	1G	1B	1d
=40	=40	=40	=40
0r	1r	1c	1e
.	1D	1d	1f
=41	=41	=41	=41
0r	1E	1r	2e
.	.	.	1c
.	1F	1A	.
.	.	.	2d
=42	=42	=42	=42
0r	1E	1B	2e
.	.	.	1g
.	4C	1c	.
.	4D	.	.
.	4E	.	4f
.	4F	.	4e
=43	=43	=43	=43
0r	2.G	2B	2d
.	.	4G	1g
.	4F	4A	.
.	2E	4B	.
.	.	4c	.
.	[2D	[2d	[2f
=44	=44	=44	=44
0r	2D]	2d]	4f]
.	.	.	4e
.	2E	1c	2c
.	2F	.	1d
.	2G	2B	.
=45	=45	=45	=45
0r	2C	1c	1c
.	2F	.	.
.	2E	2r	1r
.	[2F	2r	.
=46	=46	=46	=46
0r	2F]	0r	1d
.	2G	.	.
.	2F	.	1d
.	2G	.	.
=47	=47	=47	=47
0r	2.A	1A	1c
.	4G	.	.
.	2F	1A	1f
.	2D	.	.
=48	=48	=48	=48
0r	1E	1G	1g
.	1F	1c	[1a
=49	=49	=49	=49
0r	1D	1r	2a]
.	.	.	2g
.	1D	1d	1f
=50	=50	=50	=50
0r	1C	1e	4e
.	.	.	4f
.	.	.	4g
.	.	.	4e
.	1F	[1d	4f
.	.	.	4e
.	.	.	4d
.	.	.	4c
=51	=51	=51	=51
0r	1G	1d]	2B
.	.	.	2b
.	1A	1c	2cc
.	.	.	[2ee
=52	=52	=52	=52
0r	1G	1B	4ee]
.	.	.	4dd
.	.	.	1dd
.	2F	1c	.
.	2E	.	[2cc
=53	=53	=53	=53
0r	1F	0d	2cc]
.	.	.	4b
.	.	.	4a
.	1G	.	1b
=54	=54	=54	=54
0r	2C	1.c	2.cc
.	1F	.	.
.	.	.	4b
.	.	.	2a
.	2D	2B	[2g
=55	=55	=55	=55
0r	1F	1A	2g]
.	.	.	2f
.	2E	2G	1g
.	2E	[2c	.
=56	=56	=56	=56
0r	1D	2c]	2r
.	.	2B	1f
.	1C	1c	.
.	.	.	[2e
=57	=57	=57	=57
0r	1D	2r	2e]
.	.	1f	1d
.	1A	.	.
.	.	[2e	2c
=58	=58	=58	=58
0r	2G	2e]	2g
.	2B	1d	1f
.	1A	.	.
.	.	2c	[2e
=59	=59	=59	=59
0r	2G	2g	2e]
.	2B	1f	1d
.	1A	.	.
.	.	[2e	2c
=60	=60	=60	=60
0r	2G	2e]	1d
.	2F	1d	.
.	2G	.	1e
.	2A	2c#i	.
=61	=61	=61	=61
0r	1D	2d	2d
.	.	2.A	2.f
.	1F	.	.
.	.	4B	4g
.	.	4c	2a
.	.	4d	.
=62	=62	=62	=62
0r	1E	4e	2g
.	.	4f	.
.	.	2.g	2.b
.	2G	.	.
.	.	4f	4cc
.	2B	2d	2dd
=63	=63	=63	=63
0r	2A	2e	2cc
.	4D	2f	2.a
.	4E	.	.
.	4F	2f	.
.	4G	.	4b
.	[2A	4e	4cc
.	.	4d	4dd
=64	=64	=64	=64
0r	2A]	2c	4ee
.	.	.	4dd
.	2F	2f	1dd
.	2G	1e	.
.	2A	.	2cc#i
=65	=65	=65	=65
0r	2F	[0dl	2.dd
.	1G	.	.
.	.	.	4cc
.	.	.	2b-X
.	2F	.	2a
=66	=66	=66	=66
0r	2.B-i	0d_	2g
.	.	.	4f
.	4A	.	4g
.	2F	.	4a
.	.	.	4f
.	[2G	.	[2b-i
=67	=67	=67	=67
0r	4G]	0d_	4b-]
.	4F	.	4a
.	2D	.	2.a
.	1G	.	.
.	.	.	4f
.	.	.	2g
=68	=68	=68	=68
0r	0Dl	0d]	0al
=69||	=69||	=69||	=69||
*M2/1	*M2/1	*M2/1	*M2/1
*met(C|)	*met(C|)	*met(C|)	*met(C|)
!!section: Tertia pars: Et Ihesum
!!!OMD: Tertia pars: Et Ihesum
0D	1d	2.D	[0a
.	.	4E	.
.	1A	2F	.
.	.	2G	.
=70	=70	=70	=70
0AA	1.c	2A	0a]
.	.	2B	.
.	.	2c	.
.	4B	2d	.
.	4A	.	.
=71	=71	=71	=71
1.C	1.G	2e	[0e
.	.	2f	.
.	.	2g	.
4BB	2A	[2g	.
4AA	.	.	.
=72	=72	=72	=72
2GG	2B	2g]	0e]
2.AA	1c	1e	.
4BB	.	.	.
4C	4B	4d	.
4D	4A	4c	.
=73	=73	=73	=73
2.E	2.G	2B	[0g
.	.	2e	.
4F	4A	.	.
2G	2B	2d	.
2C	2c	[2e	.
=74	=74	=74	=74
2.E	2.G	4e]	0g]
.	.	4f	.
.	.	1g	.
4F	4A	.	.
1G	2B	.	.
.	2G	4f	.
.	.	4e	.
=75	=75	=75	=75
[0D	0d	[0f	[0a
=76	=76	=76	=76
0D;]	0A;	0f;]	0a;]
=77	=77	=77	=77
0r	0r	1r	1a
.	.	1d	1a
=78	=78	=78	=78
0r	1r	1d	1b
.	1A	1e	1cc
=79	=79	=79	=79
1D	1A	0f	2b
.	.	.	2.dd
1D	1B	.	.
.	.	.	4cc
.	.	.	4b
.	.	.	4a
=80	=80	=80	=80
1E	1.c	1e	1g
[1F	.	2A	[1a
.	2B	[2d	.
=81	=81	=81	=81
2F]	2A	2d]	1a]
2E	2G	1c	.
1D	2F	.	1r
.	2D	2B	.
=82	=82	=82	=82
1C	1E	1c	1g
1r	1D	1d	1f
=83	=83	=83	=83
0r	1r	1c	1e
.	1G	1B	[1d
=84	=84	=84	=84
1D	1F	2A	1d]
.	.	1B	.
1C	1E	.	1r
.	.	[2A	.
=85	=85	=85	=85
1BB	1D	2A]	1dd
.	.	2G	.
1AA	[1E	4A	1cc
.	.	4B	.
.	.	4c	.
.	.	4d	.
=86	=86	=86	=86
1G	1E]	4e	1b
.	.	4f	.
.	.	1e	.
1F	1F	.	1a
.	.	[2d	.
=87	=87	=87	=87
1E	1G	2d]	2b
.	.	2c	2g
2.D	1F	2f	2a
.	.	[2d	[2dd
4C	.	.	.
=88	=88	=88	=88
4BB	2D	2d]	4dd]
4AA	.	.	4cc
2GG	2.G	2d	4b
.	.	.	4a
1C	.	2e	2g
.	4F	.	.
.	4E	[2c	[2a
.	4D	.	.
=89	=89	=89	=89
2AA	2C	4c]	2a]
.	.	4B	.
2BB-X	2D	1B	2f
2GG	2E	.	2g
2AA	2C	[2A	[2e
=90	=90	=90	=90
1BB	1D	2A]	4e]
.	.	.	4d
.	.	2G	1d
1AA	1E	1A	.
.	.	.	2c#i
=91	=91	=91	=91
0D	1D	1r	4d
.	.	.	4e
.	.	.	4f
.	.	.	4g
.	1F	1A	2a
.	.	.	[2dd
=92	=92	=92	=92
1AA	1E	1e	2dd]
.	.	.	2cc#i
1D	1D	1f	1dd
=93	=93	=93	=93
0r	1A	1e	1r
.	1B	2r	1d
.	.	[2d	.
=94	=94	=94	=94
0r	1A	2d]	1a
.	.	2c	.
.	2r	2d	1b
.	[2G	2B	.
=95	=95	=95	=95
1AA	2G]	1c	1a
.	2F	.	.
1E	1G	1r	2r
.	.	.	[2g
=96	=96	=96	=96
1F	1D	1A	2g]
.	.	.	2f
1E	1r	1e	1g
=97	=97	=97	=97
2r	1D	1f	1d
1D	.	.	.
.	1E	1e	1r
2C	.	.	.
=98	=98	=98	=98
1D	1.F	2r	1d
.	.	1d	.
1AA	.	.	1e
.	2E	2c	.
=99	=99	=99	=99
1r	1D	1d	1.f
1AA	1C	2A	.
.	.	2r	2e
=100	=100	=100	=100
1BB-X	2r	1r	1d
.	1F	.	.
[1C	.	1A	1c
.	[2E	.	.
=101	=101	=101	=101
2C]	2E]	1B	2r
2BB	1D	.	1f
1AA	.	1c	.
.	2C	.	[2e
=102	=102	=102	=102
1GG	1D	1B	2e]
.	.	.	1d
2r	1E	2B	.
[2C	.	[2A	2c#i
=103	=103	=103	=103
2C]	2D	4A]	1d
.	.	4G	.
1BB	1r	1G	.
.	.	.	1e
[2AA	2r	[2c	.
=104	=104	=104	=104
2AA]	2r	2c]	2d
2GG	1D	1B	2g
1AA	.	.	2f
.	2C	[2A	[2e
=105	=105	=105	=105
1BB-X	1D	2A]	2e]
.	.	2G	1d
2AA	1E	1A	.
2C	.	.	2c#i
=106	=106	=106	=106
1GG	[0D	1B	[0d
1D	.	1A	.
=107	=107	=107	=107
0D;	0D;]	0A;	0d;]
=108	=108	=108	=108
0r	1.A	1.e	[0a
.	[2F	[2f	.
=109	=109	=109	=109
0r	4F]	4f]	0a]
.	4G	4e	.
.	2A	2c	.
.	2D	2d	.
.	2F	2A	.
=110	=110	=110	=110
1.G	1E	2.B	[0g
.	.	4c	.
.	1r	2d	.
[2E	.	[2e	.
=111	=111	=111	=111
4E]	0r	4e]	0g]
4F	.	4d	.
2G	.	2B	.
2C	.	2c	.
2E	.	2G	.
=112	=112	=112	=112
0D	1.A	2d	[0a
.	.	4D	.
.	.	4E	.
.	.	4F	.
.	.	4G	.
.	[2F	4A	.
.	.	4B	.
=113	=113	=113	=113
0r	4F]	2.c	0a]
.	4G	.	.
.	2A	.	.
.	.	8BL	.
.	.	8cJ	.
.	1D	[1d	.
=114	=114	=114	=114
1r	1G	2d]	[0b
.	.	2.B	.
[1G	1r	.	.
.	.	4c	.
.	.	2d	.
=115	=115	=115	=115
2G]	0r	2B	0b]
2.E	.	1e	.
4F	.	.	.
2G	.	2d	.
=116	=116	=116	=116
1C	1r	1e	[0cc
1F	[1A	2.c	.
.	.	4d	.
=117	=117	=117	=117
0r	2A]	4e	0cc]
.	.	4c	.
.	2.F	1f	.
.	4G	.	.
.	2A	2e	.
=118	=118	=118	=118
2r	0D	2f	[0dd
1D	.	4d	.
.	.	4e	.
.	.	4f	.
.	.	4d	.
[2BB	.	[2g	.
=119	=119	=119	=119
4BB]	0r	2g]	0dd]
4C	.	.	.
2D	.	2f	.
1GG	.	1g	.
=120	=120	=120	=120
0AA	1r	2.e	[0cc
.	.	4d	.
.	[1A	2e	.
.	.	2f	.
=121	=121	=121	=121
0r	2A]	2e	0cc]
.	2.F	2.a	.
.	4G	4g	.
.	2A	4e	.
.	.	4f	.
=122	=122	=122	=122
1.G	1E	2.g	[0b
.	.	4f	.
.	1r	2d	.
[2E	.	[2e	.
=123	=123	=123	=123
4E]	0r	2e]	0b]
4F	.	.	.
2G	.	2d	.
1GG	.	1g	.
=124	=124	=124	=124
0D	1.A	1f	[0a
.	.	2d	.
.	[2F	[2f	.
=125	=125	=125	=125
0r	4F]	4f]	0a]
.	4G	4e	.
.	2A	4c	.
.	.	4d	.
.	1AA	2.e	.
.	.	4f	.
=126	=126	=126	=126
1.G	2.E	2g	[0g
.	.	4f	.
.	4F	4e	.
.	2G	2d	.
[2E	[2C	[2e	.
=127	=127	=127	=127
4E]	4C]	2e]	0g]
4F	4D	.	.
2G	4E	4d	.
.	4F	4c	.
1GG	1G	1B	.
=128	=128	=128	=128
0D	0F	0A	[0al
=129	=129	=129	=129
0AAl	0El	0cl	0a]
==	==	==	==
*-	*-	*-	*-
!!!system-decoration: s1,s2,s3,s4
!!!RDF**kern: i = editorial accidental
!!!RDF**kern: l = terminal long
!!!ENC: Max Blistain
!!!END: 2025/11/27
!!!EED: Benjamin Ory
!!!EEV: 2025/12/03
!!!YEC: Copyright 2025 Benjamin Ory, All Rights Reserved
!!!ONB: Translated from MusicXML on 2025/12/03
